img/svg/like.svg

<svg width="21" height="21" viewBox="0 0 21 21" fill="none" xmlns="http://www.w3.org/2000/svg">
<rect width="21" height="21" rx="10.5" fill="#27AE60"/>
<path d="M13.0431 14.9937L9.39888 14.4497C9.22253 14.4234 9.05947 14.3399 8.93433 14.2119C8.80919 14.0839 8.72877 13.9183 8.70523 13.7402L8.18596 9.82914C8.15366 9.58556 8.20293 9.33808 8.32595 9.12592C8.91481 8.10894 9.32615 7.37576 9.5592 6.9264C9.85871 6.34695 10.274 5.47266 10.8042 4.30273C10.8361 4.21402 10.8944 4.13737 10.9711 4.08321C11.0478 4.02905 11.1391 4 11.2327 4C12.9508 4 12.5231 5.91414 11.7911 8.39196H14.3092C15.8764 8.39196 16.2252 9.74794 15.8764 10.8043L14.9145 13.6637C14.6486 14.4639 13.8783 15.0583 13.0431 14.9937ZM5.43793 15C5.38036 15 5.32335 14.9886 5.27016 14.9663C5.21698 14.9441 5.16867 14.9115 5.12799 14.8704C5.08732 14.8293 5.05507 14.7806 5.03311 14.7269C5.01115 14.6733 4.9999 14.6158 5 14.5577L5.00782 9.37031C5.00782 9.25323 5.05396 9.14093 5.13609 9.05814C5.21822 8.97535 5.32961 8.92883 5.44575 8.92883H6.38575C6.49282 8.92883 6.59619 8.96837 6.67631 9.03999C6.75643 9.1116 6.80774 9.21033 6.82055 9.31749L7.44382 14.5049C7.45135 14.567 7.44573 14.6299 7.42731 14.6896C7.4089 14.7493 7.37813 14.8044 7.33702 14.8512C7.29592 14.898 7.24542 14.9354 7.18888 14.9611C7.13233 14.9868 7.07103 15 7.00902 15H5.43793Z" fill="white"/>
</svg>

<svg xmlns="http://www.w3.org/2000/svg" width="21" height="21" fill="none" ><rect width="21" height="21" rx="10.5" fill="#27ae60"/><path d="M13.043 14.994l-3.644-.544a.82.82 0 0 1-.465-.238.83.83 0 0 1-.229-.472l-.519-3.911a1.11 1.11 0 0 1 .14-.703l1.233-2.2 1.245-2.624a.46.46 0 0 1 .167-.22c.077-.054.168-.083.262-.083 1.718 0 1.29 1.914.558 4.392h2.518c1.567 0 1.916 1.356 1.567 2.412l-.962 2.859c-.266.8-1.036 1.395-1.871 1.33zM5.438 15c-.058 0-.115-.011-.168-.034s-.101-.055-.142-.096a.44.44 0 0 1-.095-.143c-.022-.054-.033-.111-.033-.169l.008-5.187c0-.117.046-.229.128-.312s.194-.129.31-.129h.94c.107 0 .21.04.291.111s.131.17.144.277l.623 5.187c.008.062.002.125-.017.185s-.049.115-.09.162a.44.44 0 0 1-.148.11c-.057.026-.118.039-.18.039H5.438z" fill="#fff"/></svg>
